components/Common/Svg/svgs/audience.svg

<svg width="40" height="40" viewBox="0 0 40 40" fill="none" xmlns="http://www.w3.org/2000/svg">
<path fill-rule="evenodd" clip-rule="evenodd" d="M3.1157 12C3.73187 12 4.23141 11.5005 4.23141 10.8843V5.23141H9.8843C10.5005 5.23141 11 4.73187 11 4.1157C11 3.49954 10.5005 3 9.8843 3H3.1157C2.49954 3 2 3.49954 2 4.1157V10.8843C2 11.5005 2.49954 12 3.1157 12ZM4.23141 34.7686H9.8843C10.5005 34.7686 11 35.2681 11 35.8843C11 36.5005 10.5005 37 9.8843 37H3.1157C2.49954 37 2 36.5005 2 35.8843V29.1157C2 28.4995 2.49954 28 3.1157 28C3.73187 28 4.23141 28.4995 4.23141 29.1157V34.7686ZM35.7686 29.1157C35.7686 28.4995 36.2681 28 36.8843 28C37.5005 28 38 28.4995 38 29.1157V35.8843C38 36.5005 37.5005 37 36.8843 37H30.1157C29.4995 37 29 36.5005 29 35.8843C29 35.2681 29.4995 34.7686 30.1157 34.7686H35.7686V29.1157ZM30.1066 3H36.8934C37.5046 3 38 3.49954 38 4.1157V10.8843C38 11.5005 37.5046 12 36.8934 12C36.2823 12 35.7869 11.5005 35.7869 10.8843V5.23141H30.1066C29.4954 5.23141 29 4.73187 29 4.1157C29 3.49954 29.4954 3 30.1066 3ZM20.0003 17.5371C20.0002 17.5371 20.0001 17.5371 20 17.5371C20.0001 17.5371 20.0002 17.5371 20.0002 17.5371C20.0002 17.5371 20.0002 17.5371 20.0003 17.5371ZM20.3464 8.80506C22.5963 8.98221 24.3729 10.8697 24.3729 13.1643C24.3729 15.5002 22.5319 17.4141 20.2247 17.5314C22.532 17.4142 24.3731 15.5002 24.3731 13.1643C24.3731 10.8696 22.5964 8.98211 20.3464 8.80506ZM20.0002 10.2993C20.0002 10.2993 20.0001 10.2993 20 10.2993C18.4203 10.2993 17.1351 11.5846 17.1351 13.1643C17.1351 14.7441 18.4203 16.0293 20 16.0293C18.4204 16.0292 17.1353 14.744 17.1353 13.1643C17.1353 11.5846 18.4205 10.2993 20.0002 10.2993ZM31.6109 14.7728C31.6109 16.2971 30.3708 17.5372 28.8465 17.5372C28.842 17.5372 28.8376 17.5372 28.8332 17.5372C28.8377 17.5372 28.8422 17.5372 28.8467 17.5372C30.371 17.5372 31.6111 16.2971 31.6111 14.7728C31.6111 13.3228 30.489 12.13 29.0676 12.0171C30.4889 12.1301 31.6109 13.3229 31.6109 14.7728ZM28.8425 16.0293C28.1515 16.0271 27.5901 15.4643 27.5901 14.7728C27.5901 14.0799 28.1538 13.5162 28.8467 13.5162C28.8466 13.5162 28.8465 13.5162 28.8465 13.5162C28.1536 13.5162 27.5899 14.0799 27.5899 14.7728C27.5899 15.4643 28.1515 16.0272 28.8425 16.0293ZM25.1875 21.2239C25.1156 21.1453 25.0416 21.0686 24.9656 20.9939C23.8672 19.9136 22.3615 19.2461 20.7028 19.2461C22.4762 19.2461 24.0746 20.0092 25.1875 21.224C25.1875 21.2239 25.1875 21.2239 25.1875 21.2239ZM32.8673 22.6383C32.8672 20.8409 31.4535 19.3655 29.6732 19.253C31.4536 19.3654 32.8674 20.8408 32.8675 22.6383V28.0752C32.8675 28.9161 32.1807 29.6001 31.3365 29.6001H31.3363C32.1805 29.6001 32.8673 28.9161 32.8673 28.0752V22.6383ZM26.7787 29.6001H26.7785C26.7012 30.4998 25.9446 31.2085 25.0252 31.2085H25.0254C25.9448 31.2085 26.7013 30.4998 26.7787 29.6001ZM11.7117 19.2461C13.0859 19.2461 14.272 20.0579 14.8126 21.224C14.8127 21.2239 14.8127 21.2239 14.8127 21.2239C14.768 21.1274 14.7189 21.0333 14.6656 20.942C14.0746 19.9291 12.9723 19.2461 11.7119 19.2461H11.7117ZM8.64069 22.6383C8.64069 21.5993 9.49525 20.7539 10.5456 20.7539L10.5458 20.7539C9.49545 20.7539 8.64088 21.5993 8.64088 22.6383V28.0923H8.64069V22.6383ZM11.724 20.754C11.7199 20.7539 11.7158 20.7539 11.7117 20.7539L11.7119 20.7539C11.716 20.7539 11.72 20.754 11.724 20.754ZM19.2974 20.7539L19.2976 20.7539C16.775 20.7539 14.7226 22.8063 14.7226 25.3289V29.4483C14.7226 29.5874 14.8358 29.7007 14.975 29.7007H14.9748C14.8356 29.7007 14.7224 29.5874 14.7224 29.4483V25.3289C14.7224 22.8063 16.7748 20.7539 19.2974 20.7539ZM20.7321 20.754C20.7223 20.754 20.7124 20.7539 20.7026 20.7539L20.7028 20.7539C20.7126 20.7539 20.7223 20.754 20.7321 20.754ZM31.0628 28.0929C31.0627 28.0929 31.0627 28.0929 31.0627 28.0929L31.06 28.0929C30.8261 28.094 30.4137 28.0938 29.6892 28.0933C29.6657 28.0933 29.642 28.0933 29.6179 28.0933M29.6158 28.0933H29.6169H29.6171H29.6179M29.4667 20.754C29.4626 20.7539 29.4585 20.7539 29.4544 20.7539L29.4546 20.7539C29.4586 20.7539 29.4627 20.754 29.4667 20.754ZM28.2885 20.7539C27.2381 20.7539 26.3835 21.5993 26.3835 22.6383V23.1545C26.8082 24.2601 26.8033 24.9817 26.7908 26.8663C26.7889 27.1474 26.7868 27.4543 26.786 27.7923C26.7858 27.8896 26.7856 27.9896 26.7856 28.0923C26.7856 28.0923 26.7855 28.0923 26.7854 28.0923C26.7854 27.6334 26.7881 27.2284 26.7906 26.8663C26.8031 24.9817 26.808 24.2601 26.3833 23.1545V22.6383C26.3833 21.5993 27.2379 20.7539 28.2883 20.7539L28.2885 20.7539ZM13.9183 14.7728C13.9183 16.2971 12.6782 17.5372 11.1538 17.5372C11.1494 17.5372 11.145 17.5372 11.1405 17.5372C11.145 17.5372 11.1495 17.5372 11.154 17.5372C12.6783 17.5372 13.9185 16.2971 13.9185 14.7728C13.9185 13.2866 12.7396 12.0705 11.2678 12.0106C12.7395 12.0706 13.9183 13.2866 13.9183 14.7728ZM11.154 13.5162C11.154 13.5162 11.1539 13.5162 11.1538 13.5162C10.461 13.5162 9.89728 14.0799 9.89728 14.7728C9.89728 15.4643 10.4588 16.0272 11.1499 16.0293C10.4589 16.0271 9.89747 15.4643 9.89747 14.7728C9.89747 14.0799 10.4612 13.5162 11.154 13.5162ZM12.9096 26.872C12.9115 27.1521 12.9136 27.4571 12.9144 27.7923H8.94088V22.6383C8.94088 21.768 9.65805 21.0539 10.5458 21.0539H11.7119C12.5997 21.0539 13.3169 21.768 13.3169 22.6383V23.0994C12.8916 24.2307 12.897 25.0229 12.9093 26.834L12.9096 26.87L12.9096 26.872ZM20.0002 17.8371C22.5771 17.8371 24.6731 15.7412 24.6731 13.1643C24.6731 10.5874 22.5771 8.49147 20.0002 8.49147C17.4234 8.49147 15.3274 10.5874 15.3274 13.1643C15.3274 15.7412 17.4234 17.8371 20.0002 17.8371ZM20.0002 10.5993C21.4143 10.5993 22.5652 11.7502 22.5652 13.1643C22.5652 14.5784 21.4143 15.7293 20.0002 15.7293C18.5862 15.7293 17.4353 14.5784 17.4353 13.1643C17.4353 11.7502 18.5862 10.5993 20.0002 10.5993ZM28.8467 17.8372C30.5367 17.8372 31.9111 16.4628 31.9111 14.7728C31.9111 13.0828 30.5367 11.7083 28.8467 11.7083C27.1567 11.7083 25.7822 13.0828 25.7822 14.7728C25.7822 16.4628 27.1567 17.8372 28.8467 17.8372ZM28.8467 13.8162C29.3738 13.8162 29.8032 14.2456 29.8032 14.7728C29.8032 15.3 29.3738 15.7293 28.8467 15.7293C28.3195 15.7293 27.8901 15.3 27.8901 14.7728C27.8901 14.2456 28.3195 13.8162 28.8467 13.8162ZM29.4546 18.9461H28.2885C26.9459 18.9461 25.7686 19.6585 25.1166 20.7224C23.9699 19.6233 22.4141 18.9461 20.7028 18.9461H19.2976C17.5864 18.9461 16.0305 19.6233 14.8838 20.7225C14.2318 19.6585 13.0545 18.9461 11.7119 18.9461H10.5458C8.50003 18.9461 6.83301 20.6004 6.83301 22.6383V28.1274C6.83301 29.1062 7.63156 29.9001 8.61133 29.9001H12.9652C13.1717 30.8196 13.9937 31.5085 14.9751 31.5085H25.0254C26.0067 31.5085 26.8287 30.8196 27.0352 29.9001H31.3365C32.3452 29.9001 33.1674 29.0829 33.1674 28.0752V22.6383C33.1674 20.6004 31.5004 18.9461 29.4546 18.9461ZM24.9778 25.3289V29.4007H15.0226V25.3289C15.0226 22.9719 16.9406 21.0539 19.2976 21.0539H20.7028C23.0598 21.0539 24.9778 22.9719 24.9778 25.3289ZM31.0595 22.6383V27.7929C30.8194 27.7941 30.3879 27.7938 29.6173 27.7933C29.0089 27.7929 28.1894 27.7924 27.086 27.7923C27.0868 27.4555 27.0889 27.1492 27.0908 26.8683L27.091 26.8304C27.1032 25.0088 27.1084 24.2292 26.6835 23.0994V22.6383C26.6835 21.768 27.4007 21.0539 28.2885 21.0539H29.4546C30.3424 21.0539 31.0595 21.768 31.0595 22.6383ZM11.154 17.8372C12.844 17.8372 14.2185 16.4628 14.2185 14.7728C14.2185 13.0828 12.844 11.7083 11.154 11.7083C9.46404 11.7083 8.0896 13.0828 8.0896 14.7728C8.0896 16.4628 9.46404 17.8372 11.154 17.8372ZM11.154 13.8162C11.6812 13.8162 12.1106 14.2456 12.1106 14.7728C12.1106 15.3 11.6812 15.7293 11.154 15.7293C10.6269 15.7293 10.1975 15.3 10.1975 14.7728C10.1975 14.2456 10.6269 13.8162 11.154 13.8162Z" fill="#161616"/>
</svg>

<svg width="40" height="40" viewBox="0 0 40 40" fill="none" xmlns="http://www.w3.org/2000/svg"><path fill-rule="evenodd" clip-rule="evenodd" d="M3.116 12c.616 0 1.115-.5 1.115-1.116V5.231h5.653a1.116 1.116 0 0 0 0-2.231H3.116C2.5 3 2 3.5 2 4.116v6.768C2 11.501 2.5 12 3.116 12ZM4.23 34.769h5.653a1.116 1.116 0 1 1 0 2.231H3.116C2.5 37 2 36.5 2 35.884v-6.768a1.116 1.116 0 0 1 2.231 0v5.653Zm31.538-5.653a1.116 1.116 0 1 1 2.231 0v6.768c0 .617-.5 1.116-1.116 1.116h-6.768a1.116 1.116 0 1 1 0-2.231h5.653v-5.653ZM30.107 3h6.786C37.505 3 38 3.5 38 4.116v6.768c0 .617-.495 1.116-1.107 1.116-.61 0-1.106-.5-1.106-1.116V5.231h-5.68c-.612 0-1.107-.5-1.107-1.115C29 3.5 29.495 3 30.107 3ZM20 17.537Zm.346-8.732a4.379 4.379 0 0 0 0 0ZM20 10.3a2.868 2.868 0 0 1 0 0Zm11.61 4.474a2.768 2.768 0 0 1-2.764 2.764h-.013.014a2.768 2.768 0 0 0 2.764-2.764Zm-2.767 1.256a1.258 1.258 0 0 1-1.253-1.256 1.258 1.258 0 0 0 0 0c0 .691.561 1.254 1.253 1.256Zm-3.655 5.195a6.063 6.063 0 0 0 0 0Zm7.68 1.414c0-1.797-1.415-3.273-3.195-3.385 1.78.112 3.194 1.588 3.195 3.385v5.437a1.53 1.53 0 0 0 0 0v-5.437Zm-6.09 6.962a1.762 1.762 0 0 0 0 0ZM11.713 19.246c1.374 0 2.56.812 3.1 1.978a3.418 3.418 0 0 0-3.1-1.978ZM8.64 22.638c0-1.039.854-1.884 1.905-1.884-1.05 0-1.905.845-1.905 1.884v5.454-5.454Zm3.083-1.884h-.012.012Zm7.573 0a4.58 4.58 0 0 0-4.574 4.575v4.12a.253.253 0 0 1 0 0v-4.12a4.58 4.58 0 0 1 4.574-4.575Zm1.435 0h-.03.03Zm10.33 7.339H29.619m-.002 0h.001m-.15-7.339h-.013.013Zm-1.178 0c-1.05 0-1.905.845-1.905 1.884v.516c.424 1.106.42 1.828.407 3.712l-.005.926v.3c0-.459.002-.864.005-1.226.012-1.884.017-2.606-.408-3.712v-.516c0-1.039.855-1.884 1.905-1.884Zm-14.37-5.981a2.768 2.768 0 0 1-2.765 2.764h-.014.014a2.768 2.768 0 0 0 2.764-2.764Zm-2.765-1.257a1.258 1.258 0 1 0-1.256 1.257c0-.693.563-1.257 1.256-1.257Zm1.756 13.356c.002.28.004.585.004.92H8.941v-5.154c0-.87.717-1.584 1.605-1.584h1.166c.888 0 1.605.714 1.605 1.584v.461c-.425 1.132-.42 1.924-.408 3.735v.038ZM20 17.837a4.678 4.678 0 0 0 4.673-4.673A4.678 4.678 0 0 0 20 8.491a4.678 4.678 0 0 0-4.673 4.673A4.678 4.678 0 0 0 20 17.837Zm0-7.238a2.568 2.568 0 0 1 2.565 2.565A2.568 2.568 0 0 1 20 15.73a2.568 2.568 0 0 1-2.565-2.565A2.568 2.568 0 0 1 20 10.6Zm8.847 7.238a3.068 3.068 0 0 0 3.064-3.064 3.068 3.068 0 0 0-3.064-3.065 3.068 3.068 0 0 0-3.065 3.065 3.068 3.068 0 0 0 3.065 3.064Zm0-4.02c.527 0 .956.429.956.956 0 .527-.43.956-.956.956a.958.958 0 0 1-.957-.956c0-.527.43-.957.957-.957Zm.608 5.13h-1.166c-1.343 0-2.52.712-3.172 1.775a6.361 6.361 0 0 0-4.414-1.776h-1.405a6.361 6.361 0 0 0-4.414 1.776 3.717 3.717 0 0 0-3.172-1.776h-1.166c-2.046 0-3.713 1.654-3.713 3.692v5.49c0 .978.799 1.772 1.778 1.772h4.354a2.063 2.063 0 0 0 2.01 1.609h10.05c.982 0 1.804-.69 2.01-1.609h4.302a1.83 1.83 0 0 0 1.83-1.825v-5.437c0-2.038-1.667-3.692-3.712-3.692Zm-4.477 6.382V29.4h-9.955v-4.072a4.28 4.28 0 0 1 4.275-4.275h1.405a4.28 4.28 0 0 1 4.275 4.275Zm6.081-2.69v5.154h-3.973c0-.337.003-.644.005-.925v-.038c.012-1.821.017-2.6-.408-3.73v-.462c0-.87.718-1.584 1.605-1.584h1.167c.887 0 1.605.714 1.605 1.584Zm-19.905-4.802a3.068 3.068 0 0 0 3.065-3.064 3.068 3.068 0 0 0-3.065-3.065 3.068 3.068 0 0 0-3.064 3.065 3.068 3.068 0 0 0 3.064 3.064Zm0-4.02c.527 0 .957.429.957.956a.958.958 0 0 1-1.913 0c0-.527.429-.957.956-.957Z" fill="#161616"/></svg>
